X:1
T:Title
L:1/8
Q:1/4=110
M:4/4
K:A
V:1 treble nm="Church Organ, Staff"
V:1
 A2 z B c2 d2 | d2 c2 e2 A2 | A2 f2 e2 d2 | cBA=G F2 E2 | E2 z F G2 A2 | A2 G2 B2 E2 | E2 c2 BAGF | %7
w: By~Mr.~G.~B.~Lissant * * *|||||||
 E2 B2 A4 | A3 B c2 d2 | e2 d2 d2 c2 | A3 B c2 d2 | A2 A2 A4 | A2 z A =c2 c2 | ^E2 z E A2 A2 | %14
w: |||||||
 D2 z D E2 E2 | E3 D D4 |] %16
w: ||

